X: 22062
T: Knockliscrane Cross
R: reel
M: 4/4
K: Dmajor
AdAF D2FD|EFGF EA,3|AdAF D2FD|EFGE FD3|
AdAF D2FD|EFGF EA,3|AdAF D2FD|EAGE FD3||
Ad3 fd3|cA3 cde2|Ad3 fd3|cAGE FD3|
Ad3 fd3|cAAB cde2|fdec d2cA|(3Bcd AG FD3||

